svgs/sharp-regular/id-card-clip.svg

<svg xmlns="http://www.w3.org/2000/svg" viewBox="0 0 576 512"><!--! Font Awesome Pro 6.6.0 by @fontawesome - https://fontawesome.com License - https://fontawesome.com/license (Commercial License) Copyright 2024 Fonticons, Inc. --><path d="M352 0L224 0l0 128 128 0L352 0zM192 64L48 64 0 64l0 48L0 464l0 48 48 0 480 0 48 0 0-48 0-352 0-48-48 0L384 64l0 48 144 0 0 352L48 464l0-352 144 0 0-48zm96 240a64 64 0 1 0 0-128 64 64 0 1 0 0 128zM176 432l224 0-32-96-160 0-32 96z"/></svg>

<svg xmlns="http://www.w3.org/2000/svg" viewBox="0 0 576 512"><!--! Font Awesome Pro 6.4.2 by @fontawesome - https://fontawesome.com License - https://fontawesome.com/license (Commercial License) Copyright 2023 Fonticons, Inc. --><path d="M352 0H224V128H352V0zM192 64H48 0v48V464v48H48 528h48V464 112 64H528 384v48H528V464H48V112H192V64zm96 240a64 64 0 1 0 0-128 64 64 0 1 0 0 128zM176 432H400l-32-96H208l-32 96z"/></svg>
